svg/datapower-routing.svg

<?xml version="1.0" encoding="UTF-8"?>
<svg xmlns="http://www.w3.org/2000/svg" xmlns:xlink="http://www.w3.org/1999/xlink" width="32" height="32" viewBox="0 0 32 32">
<path fill="none" stroke-width="0.721" stroke-linecap="butt" stroke-linejoin="miter" stroke="rgb(0%, 0%, 0%)" stroke-opacity="1" stroke-miterlimit="10" d="M 22.980469 9.800781 L 24.980469 7.800781 L 22.980469 5.800781 M 6.980469 7.800781 C 6.976562 8.207031 7.21875 8.578125 7.597656 8.734375 C 7.972656 8.894531 8.40625 8.808594 8.695312 8.519531 C 8.984375 8.234375 9.074219 7.800781 8.917969 7.421875 C 8.765625 7.042969 8.394531 6.796875 7.988281 6.800781 C 7.71875 6.789062 7.453125 6.890625 7.257812 7.078125 C 7.0625 7.265625 6.949219 7.523438 6.945312 7.792969 Z M 6.980469 23.832031 C 6.976562 24.242188 7.222656 24.609375 7.597656 24.769531 C 7.972656 24.925781 8.40625 24.839844 8.695312 24.554688 C 8.980469 24.265625 9.066406 23.835938 8.914062 23.460938 C 8.757812 23.082031 8.394531 22.835938 7.988281 22.832031 C 7.714844 22.824219 7.453125 22.921875 7.257812 23.109375 C 7.058594 23.296875 6.949219 23.554688 6.945312 23.828125 Z M 22.980469 23.832031 C 22.980469 24.386719 23.429688 24.835938 23.980469 24.839844 C 24.523438 24.828125 24.957031 24.386719 24.960938 23.84375 C 24.96875 23.300781 24.542969 22.851562 24 22.828125 C 23.730469 22.824219 23.472656 22.925781 23.28125 23.113281 C 23.089844 23.300781 22.980469 23.558594 22.980469 23.828125 Z M 22.980469 23.832031 L 8.980469 23.832031 M 7.980469 8.800781 L 7.980469 22.828125 M 24.988281 7.792969 L 8.988281 7.792969 "/>
</svg>

<svg role="img" viewBox="0 0 32 32" height="32" width="32" xmlns="http://www.w3.org/2000/svg"><defs><clipPath id="178__170__161__clip-0"><path d="M0 0h32v31.875H0Zm0 0"/></clipPath><clipPath id="179__171__163__clip-2"><path d="M0 0h32v32H0z"/></clipPath><g clip-path="url(#178__170__161__clip-0)" id="180__172__164__source-15"><path d="M-.066-.227H32V31.84H-.066Zm0 0" fill="url(#181__173__165__datapower-routing-lp-0)"/></g><g clip-path="url(#179__171__163__clip-2)" id="182__174__166__source-18" mask="url(#183__175__167__mask-0)"><use href="#180__172__164__source-15"/></g><linearGradient gradientTransform="scale(.66667)" gradientUnits="userSpaceOnUse" id="181__173__165__linear-pattern-0" x1="-.1" x2="48" y1="47.76" y2="-.34"><stop offset=".1" stop-color="rgb(3.137255%, 74.117647%, 72.941176%)"/><stop offset=".9" stop-color="rgb(54.117647%, 24.705882%, 98.823529%)"/></linearGradient><filter height="100%" id="184__176__168__filter-remove-color" width="100%" x="0%" y="0%"><feColorMatrix color-interpolation-filters="sRGB" values="0 0 0 0 1 0 0 0 0 1 0 0 0 0 1 0 0 0 1 0"/></filter><image height="32" href="data:image/png;base64,iVBORw0KGgoAAAANSUhEUgAAACAAAAAgCAYAAABzenr0AAAABmJLR0QA/wD/AP+gvaeTAAAAGklEQVRYhe3BAQEAAACCIP+vbkhAAQAAAO8GECAAAUcBoIgAAAAASUVORK5CYII=" id="185__177__169__source-16" width="32" x="0" y="0"/><mask id="183__175__167__mask-0"><g filter="url(#184__176__168__filter-remove-color)"><use href="#185__177__169__source-16"/></g></mask></defs><use href="#182__174__166__source-18"/><path d="m22.98 9.8 2-2-2-2m-16 2a.999.999 0 0 0 .618.934.998.998 0 0 0 1.097-.214 1.004 1.004 0 0 0-.707-1.72.997.997 0 0 0-.73.278 1.013 1.013 0 0 0-.313.715Zm0 16.032c-.003.41.243.777.618.938.375.156.808.07 1.097-.215a1.011 1.011 0 0 0-.707-1.723 1.007 1.007 0 0 0-1.043.996Zm16 0c0 .555.45 1.004 1 1.008.543-.012.977-.453.98-.996a1.003 1.003 0 0 0-.96-1.016 1.003 1.003 0 0 0-1.02 1Zm0 0h-14m-1-15.031v14.027M24.988 7.793h-16" fill="none" stroke="rgb(0%, 0%, 0%)" stroke-miterlimit="10" stroke-width=".721"/></svg>
